images/instagram.svg

<svg width="30" height="30" viewBox="0 0 30 30" fill="none" xmlns="http://www.w3.org/2000/svg">
<path d="M15 2.7025C19.005 2.7025 19.48 2.7175 21.0613 2.79C22.6963 2.865 24.38 3.2375 25.5713 4.42875C26.7738 5.63125 27.135 7.29875 27.21 8.93875C27.2825 10.52 27.2975 10.995 27.2975 15C27.2975 19.005 27.2825 19.48 27.21 21.0613C27.1362 22.6875 26.755 24.3875 25.5713 25.5713C24.3688 26.7738 22.7025 27.135 21.0613 27.21C19.48 27.2825 19.005 27.2975 15 27.2975C10.995 27.2975 10.52 27.2825 8.93875 27.21C7.325 27.1362 5.6025 26.7463 4.42875 25.5713C3.2325 24.375 2.865 22.6912 2.79 21.0613C2.7175 19.48 2.7025 19.005 2.7025 15C2.7025 10.995 2.7175 10.52 2.79 8.93875C2.86375 7.31875 3.24875 5.60875 4.42875 4.42875C5.62875 3.22875 7.3025 2.865 8.93875 2.79C10.52 2.7175 10.995 2.7025 15 2.7025ZM15 0C10.9263 0 10.415 0.0175 8.815 0.09C6.49625 0.19625 4.19375 0.84125 2.5175 2.5175C0.835 4.2 0.19625 6.4975 0.09 8.815C0.0175 10.415 0 10.9263 0 15C0 19.0737 0.0175 19.585 0.09 21.185C0.19625 23.5012 0.84375 25.81 2.5175 27.4825C4.19875 29.1637 6.5 29.8037 8.815 29.91C10.415 29.9825 10.9263 30 15 30C19.0737 30 19.585 29.9825 21.185 29.91C23.5025 29.8037 25.8075 29.1575 27.4825 27.4825C29.1663 25.7987 29.8037 23.5025 29.91 21.185C29.9825 19.585 30 19.0737 30 15C30 10.9263 29.9825 10.415 29.91 8.815C29.8037 6.49625 29.1575 4.1925 27.4825 2.5175C25.8037 0.83875 23.4963 0.195 21.185 0.09C19.585 0.0175 19.0737 0 15 0Z" fill="white"/>
<path d="M15.0001 7.29749C10.7463 7.29749 7.29756 10.7462 7.29756 15C7.29756 19.2537 10.7463 22.7025 15.0001 22.7025C19.2538 22.7025 22.7026 19.2537 22.7026 15C22.7026 10.7462 19.2538 7.29749 15.0001 7.29749ZM15.0001 20C12.2388 20 10.0001 17.7612 10.0001 15C10.0001 12.2387 12.2388 9.99999 15.0001 9.99999C17.7613 9.99999 20.0001 12.2387 20.0001 15C20.0001 17.7612 17.7613 20 15.0001 20Z" fill="white"/>
<path d="M23.0076 8.79251C24.0017 8.79251 24.8076 7.98662 24.8076 6.99251C24.8076 5.99839 24.0017 5.1925 23.0076 5.1925C22.0135 5.1925 21.2076 5.99839 21.2076 6.99251C21.2076 7.98662 22.0135 8.79251 23.0076 8.79251Z" fill="white"/>
</svg>

<svg width="30" height="30" fill="none" xmlns="http://www.w3.org/2000/svg"><path d="M15 2.703c4.005 0 4.48.014 6.061.087 1.635.075 3.319.447 4.51 1.639 1.203 1.202 1.564 2.87 1.639 4.51.072 1.581.087 2.056.087 6.061s-.015 4.48-.087 6.061c-.074 1.627-.455 3.326-1.639 4.51-1.202 1.203-2.869 1.564-4.51 1.639-1.581.072-2.056.087-6.061.087s-4.48-.015-6.061-.087c-1.614-.074-3.337-.464-4.51-1.639-1.197-1.196-1.564-2.88-1.639-4.51-.073-1.581-.087-2.056-.087-6.061s.014-4.48.087-6.061c.074-1.62.459-3.33 1.639-4.51 1.2-1.2 2.873-1.564 4.51-1.639 1.581-.073 2.056-.087 6.061-.087ZM15 0c-4.074 0-4.585.018-6.185.09-2.319.106-4.621.751-6.297 2.428C.835 4.2.196 6.498.09 8.814.018 10.415 0 10.926 0 15s.018 4.585.09 6.185c.106 2.316.754 4.625 2.428 6.298 1.68 1.68 3.982 2.32 6.297 2.427 1.6.073 2.111.09 6.185.09s4.585-.017 6.185-.09c2.318-.106 4.623-.753 6.298-2.427 1.683-1.684 2.32-3.98 2.427-6.298.073-1.6.09-2.111.09-6.185s-.017-4.585-.09-6.185c-.106-2.319-.753-4.622-2.427-6.297C25.803.838 23.495.195 21.184.09 19.585.018 19.074 0 15 0Z" fill="#fff"/><path d="M15 7.297a7.703 7.703 0 1 0 0 15.406 7.703 7.703 0 0 0 0-15.406ZM15 20a5 5 0 1 1 0-10 5 5 0 0 1 0 10ZM23.008 8.793a1.8 1.8 0 1 0 0-3.6 1.8 1.8 0 0 0 0 3.6Z" fill="#fff"/></svg>
